X:904
T:Farewell Sweet Nora.
B:O'Neill's 904
Z:Transcribed by Tom Keays (htkeays@mailbox.syr.edu)
Z:abc 1.6
M:6/8
R:Jig
L:1/8
K:G
DED GAB|AGA BGE|DED GAB|AdB AGE|
DED GAB|AGA Bcd|ege dBG|DEF G2 z :|
||dBd efg|fed cBA|GFG Bcd|efg a2 e/2f/2|
gbg bafd|egf/2e/2 dBG|ege dBG|DEF G2 z :|
